X:34
T:Mulvihill's
Z: id:dc-jig-101
M:6/8
L:1/8
K:G Major
E|DBB DB/c/|dB B2/B/|AD FA|Be B2|A4|!
d>e dB|AB dB|A3 B/c/|dB B2:|!
e|dB GB|AG ED|GA Bd|cA AB|!
cd BG|EG G/B/2B,|EGG G2|EG EG|!
FD FA|BG Bd|EG FE|DF FD/G/|AG G/A/B:|!